assets/img/braze_icons/repeat-01.svg

<svg fill="none" height="24" viewBox="0 0 24 24" width="24" xmlns="http://www.w3.org/2000/svg"><g fill="#801ed7"><path d="m16.2929 1.29289c.3905-.390521 1.0237-.390521 1.4142 0l4 4c.3905.39053.3905 1.02369 0 1.41422l-4 3.99999c-.3905.3905-1.0237.3905-1.4142 0s-.3905-1.02368 0-1.41421l2.2929-2.29289h-10.7858c-.85658 0-1.43887.00078-1.88896.03755-.43842.03582-.66262.10075-.81902.18044-.37632.19174-.68229.49771-.87403.87403-.07969.1564-.14462.3806-.18044.81902-.03677.45009-.03755 1.03238-.03755 1.88896v.2c0 .5523-.44771 1-1 1-.55228 0-1-.4477-1-1v-.2413c-.00001-.80496-.00002-1.46933.04419-2.01053.04593-.56209.14449-1.0788.39179-1.56413.38349-.75265.99541-1.36457 1.74806-1.74806.48533-.2473 1.00204-.34586 1.56414-.39179.54119-.04421 1.20555-.0442 2.01052-.04419h10.8271l-2.2929-2.29289c-.3905-.39053-.3905-1.02369 0-1.41422z"/><path d="m21 12c-.5523 0-1 .4477-1 1v.2c0 .8566-.0008 1.4389-.0376 1.889-.0358.4384-.1007.6626-.1804.819-.1917.3763-.4977.6823-.874.874-.1564.0797-.3806.1446-.819.1804-.4501.0368-1.0324.0376-1.889.0376h-10.78579l2.2929-2.2929c.39052-.3905.39052-1.0237 0-1.4142-.39053-.3905-1.02369-.3905-1.41422 0l-4 4c-.39052.3905-.39052 1.0237 0 1.4142l4 4c.39053.3905 1.02369.3905 1.41422 0 .39052-.3905.39052-1.0237 0-1.4142l-2.2929-2.2929h10.82709c.805 0 1.4693 0 2.0105-.0442.5621-.0459 1.0788-.1445 1.5642-.3918.7526-.3835 1.3645-.9954 1.748-1.748.2473-.4854.3459-1.0021.3918-1.5642.0442-.5412.0442-1.2055.0442-2.0105v-.2413c0-.5523-.4477-1-1-1z"/></g></svg>

<svg width="24" height="24" viewBox="0 0 24 24" fill="none" xmlns="http://www.w3.org/2000/svg">
<path d="M16.2929 1.29289C16.6834 0.902369 17.3166 0.902369 17.7071 1.29289L21.7071 5.29289C22.0976 5.68342 22.0976 6.31658 21.7071 6.70711L17.7071 10.7071C17.3166 11.0976 16.6834 11.0976 16.2929 10.7071C15.9024 10.3166 15.9024 9.68342 16.2929 9.29289L18.5858 7H7.8C6.94342 7 6.36113 7.00078 5.91104 7.03755C5.47262 7.07337 5.24842 7.1383 5.09202 7.21799C4.7157 7.40973 4.40973 7.7157 4.21799 8.09202C4.1383 8.24842 4.07337 8.47262 4.03755 8.91104C4.00078 9.36113 4 9.94342 4 10.8V11C4 11.5523 3.55229 12 3 12C2.44772 12 2 11.5523 2 11V10.7587C1.99999 9.95374 1.99998 9.28937 2.04419 8.74817C2.09012 8.18608 2.18868 7.66937 2.43598 7.18404C2.81947 6.43139 3.43139 5.81947 4.18404 5.43598C4.66937 5.18868 5.18608 5.09012 5.74818 5.04419C6.28937 4.99998 6.95373 4.99999 7.7587 5L18.5858 5L16.2929 2.70711C15.9024 2.31658 15.9024 1.68342 16.2929 1.29289Z" fill="#801ED7"/>
<path d="M21 12C20.4477 12 20 12.4477 20 13V13.2C20 14.0566 19.9992 14.6389 19.9624 15.089C19.9266 15.5274 19.8617 15.7516 19.782 15.908C19.5903 16.2843 19.2843 16.5903 18.908 16.782C18.7516 16.8617 18.5274 16.9266 18.089 16.9624C17.6389 16.9992 17.0566 17 16.2 17H5.41421L7.70711 14.7071C8.09763 14.3166 8.09763 13.6834 7.70711 13.2929C7.31658 12.9024 6.68342 12.9024 6.29289 13.2929L2.29289 17.2929C1.90237 17.6834 1.90237 18.3166 2.29289 18.7071L6.29289 22.7071C6.68342 23.0976 7.31658 23.0976 7.70711 22.7071C8.09763 22.3166 8.09763 21.6834 7.70711 21.2929L5.41421 19H16.2413C17.0463 19 17.7106 19 18.2518 18.9558C18.8139 18.9099 19.3306 18.8113 19.816 18.564C20.5686 18.1805 21.1805 17.5686 21.564 16.816C21.8113 16.3306 21.9099 15.8139 21.9558 15.2518C22 14.7106 22 14.0463 22 13.2413V13C22 12.4477 21.5523 12 21 12Z" fill="#801ED7"/>
</svg>
